X:1
T:Through the Ivory Gate
T:Through the Ivory Gate
T:Copyright © CPDL 
T:Copyright © CPDL 
T:Copyright © CPDL 
T:Copyright © CPDL 
T:Copyright © CPDL 
T:Copyright © CPDL 
T:Copyright © CPDL 
Z:Copyright © CPDL
%%score 1 { ( 2 3 ) ( 4 5 ) }
L:1/8
Q:1/4=65
M:3/4
K:Emin
V:1 treble nm="P1"
V:2 treble nm="P2" snm=" "
V:3 treble 
V:4 bass nm=" " snm=" "
V:5 bass 
V:1
"^Editor: John Henry Fowler""^(  Revision:   4 - 1 - 2008  )""^Lento espressivo." x z z2 | %1
w: |
[M:3/4]"^From \"English Lyrics\" -  Set 3 -  Number 5""^Words by Julian Sturgis" z6 | %2
w: |
"^Charles Hubert Hastings Parry" z2 z!pp!"^( 1848 - 1918 )" D ED | D>A A4 | DD/E/ ED/>A/ A2- | %5
w: I had a|dream last night.|Dream of a friend that is dead|
 A2 z2 z2 | z E G>"^cresc."B BA |!<(! c6-!<)! | cA !>!c>G GA | D6 | z2 z!p! F FG | %11
w: _|He came with dawn's first|light|_ And stood be- side my|bed:|And as he|
 G>F B3"^cresc." F | AG B>c G2- | G!>!G!<(! c>!<)!c!>(! d!>)!c | E2 z2 c2- | c2"^rit." EG A>B, | %16
w: there did stand, With|ges- ture fine and fair|_ He passed a wan white|hand O~~\--|\- \-~~ver my tum- bled|
"^a tempo"[Q:1/4=65] C4!pp! A2- | AE z2 z2 |"^poco animando" z!<(! G A>!<)!A d2- | dG z2 z A | %20
w: hair, Say~~\--|* \-~~ing|'No friend- ship di~~\--|* \-~~eth With|
 c3 G F>"^cresc."E | A4!<)!!<(! A2 | !>!d2 AB d>c | !>!B3!>(! B c>!>)!F | G4 z2 | %25
w: death of a- ny|day, No|true friend- ship li- eth|cold with life- less|clay.|
"^cresc. animato" z2!<(! GA A!<)!B |!<(! c2!<)! E2 z c |!<(! !>!c3!<)! B d>c | D4 z2 | %29
w: Though our boy- hood's|play- time Be|gone with sum- mer's|breath,|
 z!<(! D EF!<)! c>B | A2 G2 z2 |"^rit." z!<(! E"^largamente" AB d>!<)!c | B6 | z6 | z6 | %35
w: No friend- ship fades with|May- time.|No friend- ship dies with|death~!|||
 z!p!!<(! D!<)! d4- | dF GA D2- | D2 z!<(! D F!<)!A | d>!>(!B A3!>)! G | F2 E2!p! E>"^rit."!pp!G | %40
w: Then an-|* \-~~swer had I made|_ But that the|rap- ture deep did|hold me, Half a-|
 _B3 G BA | A>_B E4 |"^Tempo  I"!p! z6 | D>D DE E>D |!<(! A6!<)! |!f! d2!>(! A>F E!>)!F | A4 z2 | %47
w: fraid to mar that|rose of sleep,||So with clos- ed eyes I|lay,|Lord of the vi- sion|fair;|
 z6 | z2 z E GB | B>A c4- | c2 z2 z2 |[M:4/4]!p!"^rit." A2 B>A d3 D |[M:3/4] D6 | z6 | z6 | z6 |] %56
w: |And when 'twas|per- fect day|_|On- ly the day was|there.||||
V:2
 x ([EAc]!>(! [DGB]!>)![B,DG]) |[M:3/4]"^Lento espressivo." (FG) z!>(! ([^CGB] [DFA]!>)![A,DF]) | %2
 D3 z z2 | z!<(! ([F,A,D] [G,B,E]!<)![A,CF])!>(! (!>!B>!>)!A) | ((GF)) z2 z [F,A,D] | %5
!<(! ([G,B,E][A,CF])!<)! (B>A) (e>d) | (dc) z2 z2 | z A!<(! ([Aea]!<)![Gg] [Fcf][Ee] | %8
 [EAe]2) z2 !tenuto![CG]2 | z ([F,A,D] [G,B,E][A,CF]) (!>!B>A) | (GF) B4- | B3 ([^DF] [CEA][DF]) | %12
 ([^DA][EG]) ([EB][DAc]) (G[GB]) | ([CGc][DGd] [DG])[CGc] [DGd][CGc] | %14
 [CE][CAc] [DAd][Cc] ([CEA][EAc]) | ([CE]([C-E-G]) [CEA])([G,CG] [A,C=F][B,D]) | %16
 z ([Gce] [=FAd][CFA][DF-][B,FA]) | z ([Gce] [=FAd][CFA][DF-][B,FA]) | %18
 z ([Gce] [=FAd][CFA][DF-][B,FA]) | z ([Gce] [=FAd][CFA][DF][B,FA]) | z ([Gce] [EGc][CEG]=FE) | %21
 z ([Ac=f] [=FAd][FA]Fc) | [DFB](!>![ABa] [=FA=f][Dd][FA][Cc] | %23
 [^FAB]) (!>![GB-g][FBf][^D^d]) ([DF][B,DA]) | [B,EG] ([FA-f][EAe][GB]) ([EFA]c-) | %25
 (cB) (3(B,EB (3EB,B) | (3(cGC) (3(CGc) (3(^GCc) | (3(Fcf) (3(fcF) (3(Ecf) | %28
 (3(cAD) (3(ACA,) (3(GCG,) | [F,CF]2 z2 z2 | z!<(! ([G,G]!<)! [A,GA][B,GB])!<(! (!>!g>!<)!e) | %31
 [CGc]2 z2 z2 | z!<(! ([A^da] [Ff]!<)![^Dd])"^cresc. appassionato" z!<(! (!>![cfc'] | %33
 [Aa])!<)!.[Ff] z!<(! (!>![eae'] [cc']!<)![Aa]) | [Gcg][Ff][Ee][Dd] G>A | %35
 ([EGe]>[Dd])!>(! (eBG!>)!E) | (GF) z (D EG) | (B>A FD) ([F,CE]>C) | (CB,)[K:treble] (=F3 E) | %39
 (([=F,B,D]2 [E,C]2)) z2 | z ([EGc] [G_Be])([EGc] [GBe])[=FAd] | %41
 ([=FAd][EGc]) z[K:bass] ([=F,_B,D] [E,G,C][F,B,D] | [E,G,]2) z (!>!_B,2 G,) | %43
"^Tempo  I" [G,=CD]4 z2 | z ([F,A,D] [G,B,E][A,CF]) (B>A) | (GF) z2 z2 | z ([Aca] [Ff][Dd]) (AB) | %47
 (!>![DFd][Cc]) (!>![Fcf][Ee]) (!>![Bdb]>[Aa]) | [cgc']2 [CEG]4 | z2 (A2 G2) | (F4 [G,E]2) | %51
[M:4/4] [F,A,D]2 z2 z (!>![EFc] [CEA][A,CF]) |[M:3/4]"^a tempo" G3 ([DGd] [CGc])[A,GA] | %53
 (!>![A,A][B,B])!<(!!<(! [B,GB](!>![Gdg] [EGe])!<)!!<)![CGc] | %54
 ([CGc][DBd]) [DBd](!>![Bdb] [Aca][Fce]) |!>(! ([Fce]2!>)! [GBd]2) z2 |] %56
V:3
 x4 |[M:3/4] D2 x2 x2 | (A,B, C) x x2 | x4 [CD]2 | [CD]2 x2 x2 | x2 [CD]2 z2 | [EG]2 x2 x2 | x6 | %8
 x6 | x4 [CD]2 | [CD]2 [A,^D]4- | [G,D]3 z x2 | x4 E2 | x6 | x6 | x6 | x6 | x6 | x6 | x6 | x4 C2 | %21
 x4 D2 | x6 | x6 | x6 | [EG]2 x2 x2 | x6 | x6 | x6 | x6 | x4 [EG]2 | x6 | x6 | x6 | x4 [DF]2 | %35
 x2 D4 | [CD]2 x2 C2 | C4 x2 | =F,2[K:treble] A,C B,2 | x6 | x6 | x3[K:bass] x3 | x2 z E,D,^C, | %43
 x6 | x6 | [CD]2 x2 x2 | x4 [DF]2 | x6 | x6 | x2 [CE]4- | [CE]2 [B,D]A, CB, |[M:4/4] x2 x2 x4 | %52
[M:3/4] [A,C][B,D] [B,D] x x2 | B2 x2 x2 | x6 | x6 |] %56
V:4
!p! x!>(! (F,, G,,!>)!B,,) |[M:3/4] G,2 z!>(! E,, F,,!>)!A,, | F,3 z z2 | %3
 z!<(! D,3!<)!!>)!!>(! D,2 | D,2 z2 z D,- |!<(! D,4!<)! D,2 | %6
 [A,,E,]2"^This edition dedicated to Edward Hamilton - Requiset in Pace - Dec 21, 2008" z2 z2 | %7
 z2!<(! [A,C]!<)!!f!B, ([A,C]G, | [F,C]2) z2 [E,G,]2 |!p! z!<(! D,3!<)!!>(! D,2!>)! | %10
 D,2!pp! D,4- | D,3 (B,, F,,B,,) | (F,,G,,) (G,F,) (B,G,) | (C,G,, G,)G,, (B,,C,) | %14
 E,E, [E,B,]A, z2 | z6 |"^dolce" z (G,, A,,D,=F,D,) | z (G,, A,,D,=F,"^poco animando"D,) | %18
 z (G,, A,,D,=F,G,,) | z (G,, A,,D,=F,D,) | z (G,, C,E,A,G,) | z (G,, A,,D,=F,D,) | %22
 z (G,, D,=F,A,A,,) | z"^dim." ((B,, B,B,,) (B,,,D,)) | z (B,, E,G,)CA, | %25
"^cresc. animato" z2 (3(G,B,,E,,) (3(B,,G,B,,) | (3(E,,D,F,) (3(G,D,F,,) (3(C,,A,,E,) | %27
 (3(F,,D,F,) (3(G,D,F,,) (3(E,,A,,E,) | (3(F,,D,F,) (3(G,D,F,,) (3(E,,A,,E,) | x6 | %30
!mf! z"^cresc. molto"!<(! E,!<)! F,G,!<(! [E,B,]2!<)! |"^rit." [A,,E,A,]2 z2 z2 | %32
!f! z!<(! [^D,A,]2!<)! [D,A,] z!<(! [D,F,C]- | [D,F,C]!<)![=D,F,C] z!<(! [E,A,C]2!<)! [E,A,C] | %34
!p!!>(! x6!>)! |!p! [B,,D,-G,]4 D,2 | [A,,D,]2 z2 [A,,D,]2 | [F,,D,]4!<)!!<(! D,,2 | %38
 z D, (C,E,D,G,) | [C,,G,,]4"^rit." z2 |!pp! z (_B, G,)"^dim."(B,G,)A, | (A,_B,) z (G,,_B,,G,,) | %42
 _B,,2 z G,,3 | D,4 z2 |!p! z D,3 D,2 | D,2 z2 z2 |!f! z (D,, A,,D,) (CB,) | %47
 !>!A,2 !>![G,A,C]2 !>![F,CD]2 | !>![E,CE]2 z2 z2 | z2 ([F,,,F,,]2 [G,,,G,,]2) | %50
 ([A,,,A,,]2 [B,,,B,,]2 [C,,C,]2) |[M:4/4] [C,,C,]2 z2 z2 D,2 |[M:3/4] z2 z (B,, E,)C, | %53
 (C,D,)"^poco cresc." D,(B,, C,)E, | (E,D,) D,(D, E,A,) |!>(! A,2!>)! B,2 z2 |] %56
V:5
 x4 |[M:3/4] D,^C, x2 x2 | (=C,B,, A,,) x x2 | x (C, B,,A,,) (G,,F,,) | A,,2 x2 x C,- | %5
 (B,,A,,)(G,,F,,) (C,B,,) | x6 | x6 | x6 | z (C, B,,A,,) (G,,F,,) | A,,2 A,,4- | A,,3 x x2 | %12
 (D,,2 B,,2 E,2) | E,,2 z2 E,,2 | A,,4 ^F,,2 | =G,,6 | C,,6- | C,,6 | C,,6- | C,,6 | (C,,4 C,2) | %21
 C,,6 | C,,6 | ^D,,4 B,,,2 | E,,4 E,2 | E,,4 x2 | x6 | x4 E,,2 | x4 E,,2 | [D,,A,,]2 z2 z2 | %30
 E,,4 x2 | x6 | !>![F,,,F,,]4 !>![A,,,A,,]2- | !>![A,,,A,,]2 !>![C,,C,]4 | [D,,,D,,]4 [C,D,A,]2 | %35
 x6 | x6 | x6 | [G,,,G,,]6 | x6 | C,6 | C,2 x C,,3- | C,,2 x (^C,,D,,E,,) | F,,4 x2 | %44
 z (C, B,,A,,) (G,,F,,) | A,,2 x2 x2 | x6 | x6 | x6 | x6 | x6 |[M:4/4] x8 |[M:3/4] [G,,,G,,]6 | %53
 G,,6 | G,,6 | [G,,D,]4 x2 |] %56

